public/assets/img/about-us/gavel.svg

<svg width="101" height="101" viewBox="0 0 101 101" fill="none" xmlns="http://www.w3.org/2000/svg">
<path d="M1 99.95V96.8079H63.3136V99.95H1ZM36.2988 66.3109L8.89227 38.9043L15.302 32.2275L42.9863 59.6234L36.2988 66.3109ZM46.6467 1.14992L74.0533 28.5565L67.3658 35.2439L39.9699 7.55968L46.6467 1.14992ZM97.8373 92.3464L26.6509 21.16L28.9024 18.9085L100.089 90.0949L97.8373 92.3464Z" fill="#F7941E" stroke="#1F1F1F"/>
</svg>

<svg xmlns="http://www.w3.org/2000/svg" width="101" height="101" fill="none"><path fill="#F7941E" stroke="#1F1F1F" d="M1 99.95v-3.142h62.314v3.142zm35.299-33.64L8.892 38.905l6.41-6.677 27.684 27.396zM46.647 1.15l27.406 27.407-6.687 6.687L39.97 7.56zm51.19 91.196L26.651 21.16l2.251-2.251 71.187 71.186z"/></svg>
